icon/ir/people-rounded.svg

<svg stroke-width="1.5" viewBox="0 0 24 24" fill="none" xmlns="http://www.w3.org/2000/svg" height="1em" width="1em">
  <path d="M3 16V8C3 5.23858 5.23858 3 8 3H16C18.7614 3 21 5.23858 21 8V16C21 18.7614 18.7614 21 16 21H8C5.23858 21 3 18.7614 3 16Z" stroke="currentColor" stroke-width="1.5"/>
  <path d="M16.5 14.5C16.5 14.5 15 16.5 12 16.5C9 16.5 7.5 14.5 7.5 14.5" stroke="currentColor" stroke-linecap="round" stroke-linejoin="round"/>
  <path d="M8.5 10C8.22386 10 8 9.77614 8 9.5C8 9.22386 8.22386 9 8.5 9C8.77614 9 9 9.22386 9 9.5C9 9.77614 8.77614 10 8.5 10Z" fill="currentColor" stroke="currentColor" stroke-linecap="round" stroke-linejoin="round"/>
  <path d="M15.5 10C15.2239 10 15 9.77614 15 9.5C15 9.22386 15.2239 9 15.5 9C15.7761 9 16 9.22386 16 9.5C16 9.77614 15.7761 10 15.5 10Z" fill="currentColor" stroke="currentColor" stroke-linecap="round" stroke-linejoin="round"/>
</svg>

<svg width="24" height="24" stroke-width="1.5" fill="none" xmlns="http://www.w3.org/2000/svg"><path d="M3 16V8a5 5 0 0 1 5-5h8a5 5 0 0 1 5 5v8a5 5 0 0 1-5 5H8a5 5 0 0 1-5-5Z" stroke="currentColor"/><path d="M16.5 14.5s-1.5 2-4.5 2-4.5-2-4.5-2" stroke="currentColor" stroke-linecap="round" stroke-linejoin="round"/><path d="M8.5 10a.5.5 0 1 1 0-1 .5.5 0 0 1 0 1ZM15.5 10a.5.5 0 1 1 0-1 .5.5 0 0 1 0 1Z" fill="currentColor" stroke="currentColor" stroke-linecap="round" stroke-linejoin="round"/></svg>
